dist/img/skills/languages/javascript.svg

<svg width="128" height="128" viewBox="0 0 128 128" fill="none" xmlns="http://www.w3.org/2000/svg">
<g opacity="0.32">
<path opacity="0.8" d="M17.0702 10.24C13.3302 10.24 10.2402 13.33 10.2402 17.07V110.93C10.2402 114.67 13.3302 117.76 17.0702 117.76H110.93C114.67 117.76 117.76 114.68 117.76 110.93V17.07C117.76 13.33 114.68 10.24 110.93 10.24H17.0702ZM17.0702 15.36H110.93C111.88 15.36 112.64 16.12 112.64 17.07V110.93C112.64 111.88 111.88 112.64 110.93 112.64H17.0702C16.1202 112.64 15.3602 111.88 15.3602 110.93V17.07C15.3602 16.12 16.1202 15.36 17.0702 15.36ZM58.8802 58.88V91.07C58.8802 96.01 57.0102 97.28 53.7602 97.28C50.3602 97.28 48.0002 95.16 46.4402 92.41L38.4002 97.28C40.7302 102.21 46.4402 107.52 54.3602 107.52C63.1202 107.52 69.1202 102.86 69.1202 92.63V58.88H58.8802ZM90.7602 58.88C82.0402 58.88 76.4502 64.46 76.4502 71.79C76.4502 79.74 81.1402 83.5 88.1902 86.5L90.6302 87.55C95.0802 89.5 97.2802 90.69 97.2802 94.04C97.2802 96.83 95.1602 98.85 91.1102 98.85C86.2902 98.85 84.0102 95.58 81.9202 92.16L74.2402 97.28C77.1102 102.95 82.2602 107.52 91.3302 107.52C100.61 107.52 107.52 102.7 107.52 93.91C107.52 85.75 102.84 82.12 94.5302 78.56L92.0902 77.52C87.9002 75.7 86.0802 74.52 86.0802 71.59C86.0802 69.22 87.9002 67.4 90.7602 67.4C93.5702 67.4 95.3702 68.59 97.0402 71.59L104.65 66.71C101.44 61.04 96.9702 58.88 90.7602 58.88Z" fill="#F8F8FF"/>
</g>
</svg>

<svg width="128" height="128" fill="none" xmlns="http://www.w3.org/2000/svg"><g opacity=".32"><path opacity=".8" d="M17.07 10.24c-3.74 0-6.83 3.09-6.83 6.83v93.86c0 3.74 3.09 6.83 6.83 6.83h93.86c3.74 0 6.83-3.08 6.83-6.83V17.07c0-3.74-3.08-6.83-6.83-6.83H17.07zm0 5.12h93.86c.95 0 1.71.76 1.71 1.71v93.86c0 .95-.76 1.71-1.71 1.71H17.07c-.95 0-1.71-.76-1.71-1.71V17.07c0-.95.76-1.71 1.71-1.71zm41.81 43.52v32.19c0 4.94-1.87 6.21-5.12 6.21-3.4 0-5.76-2.12-7.32-4.87l-8.04 4.87c2.33 4.93 8.04 10.24 15.96 10.24 8.76 0 14.76-4.66 14.76-14.89V58.88H58.88zm31.88 0c-8.72 0-14.31 5.58-14.31 12.91 0 7.95 4.69 11.71 11.74 14.71l2.44 1.05c4.45 1.95 6.65 3.14 6.65 6.49 0 2.79-2.12 4.81-6.17 4.81-4.82 0-7.1-3.27-9.19-6.69l-7.68 5.12c2.87 5.67 8.02 10.24 17.09 10.24 9.28 0 16.19-4.82 16.19-13.61 0-8.16-4.68-11.79-12.99-15.35l-2.44-1.04c-4.19-1.82-6.01-3-6.01-5.93 0-2.37 1.82-4.19 4.68-4.19 2.81 0 4.61 1.19 6.28 4.19l7.61-4.88c-3.21-5.67-7.68-7.83-13.89-7.83z" fill="#F8F8FF"/></g></svg>
